X: 32
T: Handsome Young Maidens
C: Charlie Lennon 1992 
M: 6/8
R: jig
K: A
"A"aed cdB| Ace aga| "E"bee dee| Bee bag|
"A"aed cdB| Ace aga| "E"bee dee|1 BAG "A"A3:|2 "E"BAG "A"A2B||
|: "A"c2A EAc| "D"d2f fed| "A"cde aec| "E"B2f fed|"A"c2A EAc| 
"D"d2f feOd|1"A"cde aec| "E"dBe "A"A2B:|2"A"ece "D"fdf| "E"gfg bag|]
xxxxxxxxxxxxxO|"Coda"xx"A"ece "D"fgf|"E"gfg "A"a3|]
W:Last time play Coda instead of second ending
